icons/folder-global.svg

<svg xmlns="http://www.w3.org/2000/svg" viewBox="0 0 32 32">
  <path d="M13.84376,7.53645l-1.28749-1.0729A2,2,0,0,0,11.27591,6H4A2,2,0,0,0,2,8V24a2,2,0,0,0,2,2H28a2,2,0,0,0,2-2V10a2,2,0,0,0-2-2H15.12412A2,2,0,0,1,13.84376,7.53645Z" style="fill: #5c6bc0"/>
  <g>
    <path d="M22,10A10,10,0,1,0,32,20,10,10,0,0,0,22,10Zm8,10a7.95942,7.95942,0,0,1-.26331,2H26l-2-2V18H20V14h4v2h2V13.08246A7.99843,7.99843,0,0,1,30,20ZM14,20a7.98285,7.98285,0,0,1,.12256-1.34723L18,20h4l2,2-2,2v4A8.00909,8.00909,0,0,1,14,20Z" style="fill: #c5cae9"/>
    <rect x="26" y="17" width="2" height="1" style="fill: #c5cae9"/>
  </g>
</svg>

<svg xmlns="http://www.w3.org/2000/svg" viewBox="0 0 32 32"><path fill="#5c6bc0" d="m13.844 7.536-1.288-1.072A2 2 0 0 0 11.276 6H4a2 2 0 0 0-2 2v16a2 2 0 0 0 2 2h24a2 2 0 0 0 2-2V10a2 2 0 0 0-2-2H15.124a2 2 0 0 1-1.28-.464Z"/><path fill="#c5cae9" d="M22 10a10 10 0 1 0 10 10 10 10 0 0 0-10-10Zm8 10a7.96 7.96 0 0 1-.263 2H26l-2-2v-2h-4v-4h4v2h2v-2.918A7.998 7.998 0 0 1 30 20Zm-16 0a7.983 7.983 0 0 1 .123-1.347L18 20h4l2 2-2 2v4a8.01 8.01 0 0 1-8-8Z"/><path fill="#c5cae9" d="M26 17h2v1h-2z"/></svg>
